src/assets/images/icons/planeIcon.svg

<svg width="52" height="58" viewBox="0 0 52 58" fill="none" xmlns="http://www.w3.org/2000/svg">
<path d="M25.6641 7.81435V1.64941" stroke="#1C1F35" stroke-width="2" stroke-linecap="round" stroke-linejoin="round"/>
<path d="M50.3234 36.5841C46.5731 49.6846 29.2085 54.257 26.126 54.9762C25.8226 55.0534 25.5047 55.0534 25.2013 54.9762C22.1188 54.257 4.75424 49.6846 1.00391 36.5841V27.7991C1.00387 27.3664 1.14043 26.9447 1.39411 26.5942C1.6478 26.2436 2.00566 25.9821 2.4167 25.8469L25.0215 18.2948C25.4399 18.1661 25.8874 18.1661 26.3058 18.2948L48.9106 25.8469C49.3217 25.9821 49.6795 26.2436 49.9332 26.5942C50.1869 26.9447 50.3235 27.3664 50.3234 27.7991V36.5841Z" stroke="#1C1F35" stroke-width="2" stroke-linecap="round" stroke-linejoin="round"/>
<path d="M26.131 48.3146C23.6922 47.7531 9.95355 44.1835 6.98633 33.9561" stroke="#1C1F35" stroke-width="2" stroke-linecap="round" stroke-linejoin="round"/>
<path d="M6.98633 10.6318V23.7852L25.5327 17.2042L44.0791 23.7852V10.6318C44.0791 8.97498 42.736 7.63184 41.0791 7.63184H9.98633C8.32947 7.63184 6.98633 8.97498 6.98633 10.6318Z" fill="#FFD550" stroke="#1C1F35" stroke-width="2"/>
<path d="M25.6641 38.6392V18.1921" stroke="#1C1F35" stroke-width="2" stroke-linecap="round" stroke-linejoin="round"/>
<path d="M30.918 37.5457L30.918 29.1699" stroke="#1C1F35" stroke-width="2" stroke-linecap="round" stroke-linejoin="round"/>
<path d="M11.7725 18.4007V12.418" stroke="#1C1F35" stroke-width="2" stroke-linecap="round" stroke-linejoin="round"/>
<path d="M48.8652 20.794V10.0251" stroke="#1C1F35" stroke-width="2" stroke-linecap="round" stroke-linejoin="round"/>
</svg>

<svg xmlns="http://www.w3.org/2000/svg" width="52" height="58" fill="none"><path stroke="#1C1F35" stroke-linecap="round" stroke-linejoin="round" stroke-width="2" d="M25.664 7.814V1.65M50.323 36.584c-3.75 13.1-21.114 17.673-24.197 18.392a1.875 1.875 0 0 1-.925 0c-3.082-.719-20.447-5.291-24.197-18.392V27.8a2.055 2.055 0 0 1 1.413-1.952l22.605-7.552a2.184 2.184 0 0 1 1.284 0l22.605 7.552a2.054 2.054 0 0 1 1.412 1.952v8.785Z"/><path stroke="#1C1F35" stroke-linecap="round" stroke-linejoin="round" stroke-width="2" d="M26.131 48.315c-2.439-.562-16.177-4.131-19.145-14.359"/><path fill="#FFD550" stroke="#1C1F35" stroke-width="2" d="M6.986 10.632v13.153l18.547-6.58 18.546 6.58V10.632a3 3 0 0 0-3-3H9.986a3 3 0 0 0-3 3Z"/><path stroke="#1C1F35" stroke-linecap="round" stroke-linejoin="round" stroke-width="2" d="M25.664 38.64V18.191M30.918 37.546V29.17M11.773 18.4v-5.982M48.865 20.794V10.025"/></svg>
